packages/nodes-base/nodes/Cal/cal.svg

<svg width="101" height="22" viewBox="0 0 101 22" fill="none" xmlns="http://www.w3.org/2000/svg">
<path d="M10.0582 20.817C4.32115 20.817 0 16.2763 0 10.6704C0 5.04589 4.1005 0.467773 10.0582 0.467773C13.2209 0.467773 15.409 1.43945 17.1191 3.66311L14.3609 5.96151C13.2025 4.72822 11.805 4.11158 10.0582 4.11158C6.17833 4.11158 4.04533 7.08268 4.04533 10.6704C4.04533 14.2582 6.38059 17.1732 10.0582 17.1732C11.7866 17.1732 13.2577 16.5566 14.4161 15.3233L17.1375 17.7151C15.501 19.8453 13.2577 20.817 10.0582 20.817Z" fill="#292929"/>
<path d="M29.0161 5.88601H32.7304V20.4612H29.0161V18.331C28.2438 19.8446 26.9566 20.8536 24.4927 20.8536C20.5577 20.8536 17.4133 17.4341 17.4133 13.2297C17.4133 9.02528 20.5577 5.60571 24.4927 5.60571C26.9383 5.60571 28.2438 6.61477 29.0161 8.12835V5.88601ZM29.1264 13.2297C29.1264 10.95 27.5634 9.06266 25.0995 9.06266C22.7274 9.06266 21.1828 10.9686 21.1828 13.2297C21.1828 15.4346 22.7274 17.3967 25.0995 17.3967C27.5451 17.3967 29.1264 15.4907 29.1264 13.2297Z" fill="#292929"/>
<path d="M35.3599 0H39.0742V20.4427H35.3599V0Z" fill="#292929"/>
<path d="M40.7291 18.5182C40.7291 17.3223 41.6853 16.3132 42.9908 16.3132C44.2964 16.3132 45.2158 17.3223 45.2158 18.5182C45.2158 19.7515 44.278 20.7605 42.9908 20.7605C41.7037 20.7605 40.7291 19.7515 40.7291 18.5182Z" fill="#292929"/>
<path d="M59.4296 18.1068C58.0505 19.7885 55.9543 20.8536 53.4719 20.8536C49.0404 20.8536 45.7858 17.4341 45.7858 13.2297C45.7858 9.02528 49.0404 5.60571 53.4719 5.60571C55.8623 5.60571 57.9402 6.61477 59.3193 8.20309L56.4508 10.6136C55.7336 9.71667 54.7958 9.04397 53.4719 9.04397C51.0999 9.04397 49.5553 10.95 49.5553 13.211C49.5553 15.472 51.0999 17.378 53.4719 17.378C54.9062 17.378 55.8991 16.6306 56.6346 15.6215L59.4296 18.1068Z" fill="#292929"/>
<path d="M59.7422 13.2297C59.7422 9.02528 62.9968 5.60571 67.4283 5.60571C71.8598 5.60571 75.1144 9.02528 75.1144 13.2297C75.1144 17.4341 71.8598 20.8536 67.4283 20.8536C62.9968 20.8349 59.7422 17.4341 59.7422 13.2297ZM71.3449 13.2297C71.3449 10.95 69.8003 9.06266 67.4283 9.06266C65.0563 9.04397 63.5117 10.95 63.5117 13.2297C63.5117 15.4907 65.0563 17.3967 67.4283 17.3967C69.8003 17.3967 71.3449 15.4907 71.3449 13.2297Z" fill="#292929"/>
<path d="M100.232 11.5482V20.4428H96.518V12.4638C96.518 9.94119 95.3412 8.85739 93.576 8.85739C91.921 8.85739 90.7442 9.67958 90.7442 12.4638V20.4428H87.0299V12.4638C87.0299 9.94119 85.8346 8.85739 84.0878 8.85739C82.4329 8.85739 80.9802 9.67958 80.9802 12.4638V20.4428H77.2659V5.8676H80.9802V7.88571C81.7525 6.31607 83.15 5.53125 85.3014 5.53125C87.3425 5.53125 89.0525 6.5403 89.9903 8.24074C90.9281 6.50293 92.3072 5.53125 94.8079 5.53125C97.8603 5.54994 100.232 7.86702 100.232 11.5482Z" fill="#292929"/>
</svg>

<svg xmlns="http://www.w3.org/2000/svg" width="101" height="22" fill="none"><path fill="#292929" d="M10.058 20.817C4.321 20.817 0 16.277 0 10.67 0 5.046 4.1.468 10.058.468c3.163 0 5.351.971 7.061 3.195l-2.758 2.299c-1.158-1.234-2.556-1.85-4.303-1.85-3.88 0-6.013 2.97-6.013 6.558s2.336 6.503 6.013 6.503c1.729 0 3.2-.616 4.358-1.85l2.721 2.392c-1.636 2.13-3.88 3.102-7.079 3.102M29.016 5.886h3.714v14.575h-3.714v-2.13c-.772 1.514-2.06 2.523-4.523 2.523-3.935 0-7.08-3.42-7.08-7.624 0-4.205 3.145-7.624 7.08-7.624 2.445 0 3.75 1.009 4.523 2.522zm.11 7.344c0-2.28-1.563-4.167-4.027-4.167-2.372 0-3.916 1.906-3.916 4.167 0 2.205 1.544 4.167 3.916 4.167 2.446 0 4.027-1.906 4.027-4.167M35.36 0h3.714v20.443H35.36zm5.37 18.518c0-1.196.955-2.205 2.26-2.205a2.18 2.18 0 0 1 2.226 2.205c0 1.233-.938 2.242-2.225 2.242a2.23 2.23 0 0 1-2.262-2.242m18.701-.411c-1.38 1.681-3.476 2.747-5.958 2.747-4.432 0-7.686-3.42-7.686-7.624 0-4.205 3.254-7.624 7.686-7.624 2.39 0 4.468 1.009 5.847 2.597l-2.868 2.41c-.717-.896-1.655-1.569-2.98-1.569-2.371 0-3.916 1.906-3.916 4.167s1.545 4.167 3.917 4.167c1.434 0 2.427-.747 3.163-1.757zm.312-4.877c0-4.205 3.255-7.624 7.686-7.624 4.432 0 7.686 3.42 7.686 7.624s-3.254 7.624-7.686 7.624c-4.431-.02-7.686-3.42-7.686-7.624m11.603 0c0-2.28-1.545-4.167-3.917-4.167-2.372-.019-3.916 1.887-3.916 4.167 0 2.26 1.544 4.167 3.916 4.167s3.917-1.906 3.917-4.167m28.887-1.682v8.895h-3.714v-7.98c0-2.522-1.177-3.606-2.942-3.606-1.655 0-2.832.823-2.832 3.607v7.979H87.03v-7.98c0-2.522-1.195-3.606-2.942-3.606-1.655 0-3.108.823-3.108 3.607v7.979h-3.714V5.868h3.714v2.018c.772-1.57 2.17-2.355 4.321-2.355 2.041 0 3.751 1.01 4.69 2.71.937-1.738 2.316-2.71 4.817-2.71 3.052.019 5.424 2.336 5.424 6.017"/></svg>
